X: 24847
T: Maggie's Pancakes
R: reel
M: 4/4
K: Bminor
dB~B2|fgfe|dBAB|GBdB|cAAd|AAeA|AfAA|ecAc|
dB~B2|fgfe|dBAB|GBdB|cABc|Ac~c2|efec|1 ~B3c:|2 Bcde||
f2dB|GBdB|caec|dB~B2|f2dB|GBdB|caec|Bcde|
fd~d2|fgfe|dBAB|GBdB|cABc|Ac~c2|efec|1 Bcde:|2 ~B3c||

